packages/ui/src/assets/coat.svg

<svg width="24" height="26" viewBox="0 0 24 26" fill="none" xmlns="http://www.w3.org/2000/svg">
<path d="M21.6141 19.8846C17.203 23.6806 11.0134 24.5816 2.95122 24.5346C2.95122 24.5346 1.44692 24.9969 1.10217 23.1008C1.10217 23.1008 0.792688 14.7017 2.6339 8.80588C2.6339 8.80588 2.55556 6.40055 2.64568 4.82571C2.66133 4.5554 2.77887 4.30467 2.97865 4.12057C5.2939 1.98162 6.33595 1.66823 6.33595 1.66823L9.70109 1.07275C10.2339 1.43709 11.4013 2.75335 11.2093 5.09209L11.2524 4.93147L12.5451 5.29388C12.9966 5.43125 13.2925 5.90713 13.2856 6.36139C13.2816 6.83148 12.1573 7.18403 12.1573 7.18403C9.69715 7.74034 9.69715 7.74034 9.69715 7.74034C8.96068 8.896 7.44773 9.01744 6.77001 8.98612C6.73475 8.8882 6.53167 8.97827 6.69228 8.98612C6.93123 9.5894 7.21075 11.0428 7.46538 13.7341L7.53588 14.4823C7.55546 14.6939 7.66319 16.3839 7.69058 17.4886C8.41925 15.7139 10.3592 12.4374 14.0181 11.9203C19.4321 11.1485 22.1273 15.3363 22.1273 15.3363C22.1273 15.3363 22.2213 15.446 22.3388 15.6458C23.1694 17.0326 22.8403 18.8268 21.6141 19.8846Z" fill="#FFE8FF"/>
<path d="M6.89511 8.88424C6.73024 8.8762 6.59753 8.86011 6.51711 8.84805L6.77447 8.651C6.81871 8.7073 6.85892 8.78371 6.89511 8.88424Z" fill="#FCEA2B"/>
<path d="M6.89511 8.88424C6.73024 8.8762 6.59753 8.86011 6.51711 8.84805L6.77447 8.651C6.81871 8.7073 6.85892 8.78371 6.89511 8.88424Z" fill="#FCEA2B"/>
<path d="M5.05073 8.65105C5.05073 8.65105 7.1999 6.64613 5.70026 6.0858L10.8319 5.91698L11.1016 5.45774L11.1899 4.71613C11.6209 4.78775 12.5431 5.09667 12.6543 5.12305C12.6543 5.12305 13.6212 5.87628 12.8348 6.7691L9.70664 7.66767C9.70664 7.66763 7.80728 9.19719 5.05073 8.65105Z" fill="#FFE8FF"/>
<path d="M5.05073 8.651C5.37026 12.3578 6.08031 18.9622 5.88303 19.8083C5.86509 20.0894 6.1465 20.1338 6.29035 19.9271C6.62352 19.659 7.40301 18.8828 7.82578 17.8383C7.82578 15.5212 7.55763 12.8285 6.9334 8.88564C6.7041 8.24846 5.75141 8.2563 5.05073 8.651Z" fill="#FFE8FF"/>
<path d="M15.6177 11.8156C15.6177 11.8156 19.7352 14.6197 16.8667 18.4186C16.8667 18.4186 17.7242 21.8434 16.9291 22.3799C16.134 22.9164 25.2207 20.15 21.8095 14.915C21.8096 14.915 19.7352 11.8697 15.6177 11.8156Z" fill="#FFE8FF"/>
<path d="M7.28129 14.4103C7.1091 12.6894 6.82584 9.29531 6.4952 8.87926C6.4952 8.87926 8.58666 9.32571 9.63655 7.68347" stroke="#FFE8FF" stroke-miterlimit="10" stroke-linecap="round" stroke-linejoin="round"/>
<path d="M10.1102 19.4514C10.1102 19.4514 14.454 20.5377 17.8661 17.7114" stroke="#FFE8FF" stroke-miterlimit="10" stroke-linecap="round" stroke-linejoin="round"/>
<path d="M7.38226 18.4636C7.38226 18.4636 8.53591 12.6432 13.9645 11.8715C19.3931 11.0997 22.0931 15.2954 22.0931 15.2954C22.0931 15.2954 22.1857 15.4061 22.305 15.6052C23.1384 16.9951 22.8079 18.7958 21.5798 19.8532C17.1594 23.6591 10.9531 24.5632 2.87317 24.5167C2.87317 24.5167 1.36509 24.9773 1.01949 23.0794C1.01949 23.0794 0.710293 14.6592 2.55476 8.75295C2.55476 8.75295 2.47574 6.33962 2.56711 4.76028C2.58271 4.49085 2.7013 4.23867 2.89967 4.0557C5.22357 1.9118 6.26723 1.59669 6.26723 1.59669L9.64037 1C10.2178 1.39558 11.5407 2.90563 11.0763 5.62266" stroke="#FFE8FF" stroke-miterlimit="10" stroke-linecap="round" stroke-linejoin="round"/>
<path d="M6.52544 5.86215C6.52544 5.86215 7.25583 6.90412 7.98619 5.74815V4.5372L7.80121 3.87034L7.6562 3.75854" stroke="#FFE8FF" stroke-miterlimit="10" stroke-linecap="round" stroke-linejoin="round"/>
<path d="M8.11604 5.86214C8.11604 5.86214 8.84644 6.90411 9.5768 5.74814V4.53719L9.22569 3.6825" stroke="#FFE8FF" stroke-miterlimit="10" stroke-linecap="round" stroke-linejoin="round"/>
<path d="M11.042 5.74811C10.2532 6.5077 9.70664 5.74811 9.70664 5.74811" stroke="#FFE8FF" stroke-miterlimit="10" stroke-linecap="round" stroke-linejoin="round"/>
<path d="M4.39904 4.71674C4.60164 4.89316 4.85864 5.20759 4.91313 5.69502C4.92608 5.81071 4.96581 5.92387 5.04821 6.00611C5.28748 6.24493 5.83583 6.61602 6.38422 5.74814V4.53719L6.12882 4.0274" stroke="#FFE8FF" stroke-miterlimit="10" stroke-linecap="round" stroke-linejoin="round"/>
<path d="M12.464 5.45764C13.2385 5.68674 13.3735 6.8356 12.1814 7.10611C9.63655 7.6835 9.63655 7.6835 9.63655 7.6835" stroke="#FFE8FF" stroke-miterlimit="10" stroke-linecap="round" stroke-linejoin="round"/>
</svg>

<svg width="24" height="26" fill="none" xmlns="http://www.w3.org/2000/svg"><path d="M21.614 19.885c-4.411 3.796-10.6 4.697-18.663 4.65 0 0-1.504.462-1.849-1.434 0 0-.31-8.4 1.532-14.295 0 0-.078-2.405.012-3.98.015-.27.133-.521.333-.705 2.315-2.14 3.357-2.453 3.357-2.453l3.365-.595c.533.364 1.7 1.68 1.508 4.02l.043-.162 1.293.363c.452.137.748.613.74 1.067-.003.47-1.128.823-1.128.823l-2.46.556c-.736 1.156-2.25 1.277-2.927 1.246-.035-.098-.238-.008-.078 0 .24.603.519 2.057.773 4.748l.07.748c.02.212.128 1.902.156 3.007.728-1.775 2.668-5.052 6.327-5.569 5.414-.771 8.11 3.416 8.11 3.416s.093.11.21.31c.831 1.387.502 3.18-.724 4.239Z" fill="#FFE8FF"/><path d="M6.895 8.884a3.882 3.882 0 0 1-.378-.036l.257-.197a.833.833 0 0 1 .121.233Z" fill="#FCEA2B"/><path d="M6.895 8.884a3.882 3.882 0 0 1-.378-.036l.257-.197a.833.833 0 0 1 .121.233Z" fill="#FCEA2B"/><path d="M5.05 8.651s2.15-2.005.65-2.565l5.132-.169.27-.46.088-.74c.43.07 1.353.38 1.464.406 0 0 .967.753.18 1.646l-3.127.899s-1.9 1.53-4.656.983Z" fill="#FFE8FF"/><path d="M5.05 8.651c.32 3.707 1.03 10.311.833 11.157-.018.281.263.326.407.12.334-.269 1.113-1.045 1.536-2.09 0-2.317-.268-5.01-.893-8.952-.229-.638-1.182-.63-1.882-.235ZM15.618 11.816s4.117 2.804 1.249 6.603c0 0 .857 3.424.062 3.96-.795.537 8.292-2.229 4.88-7.464 0 0-2.074-3.045-6.191-3.1Z" fill="#FFE8FF"/><path d="M7.281 14.41c-.172-1.72-.455-5.115-.786-5.53 0 0 2.092.446 3.142-1.197M10.11 19.451s4.344 1.087 7.756-1.74" stroke="#FFE8FF" stroke-miterlimit="10" stroke-linecap="round" stroke-linejoin="round"/><path d="M7.382 18.464s1.154-5.82 6.582-6.592c5.43-.772 8.13 3.423 8.13 3.423s.092.111.211.31c.833 1.39.503 3.19-.725 4.248-4.42 3.806-10.627 4.71-18.707 4.664 0 0-1.508.46-1.854-1.438 0 0-.309-8.42 1.536-14.326 0 0-.08-2.413.012-3.993.016-.27.134-.521.333-.704 2.324-2.144 3.367-2.46 3.367-2.46L9.64 1c.578.396 1.9 1.906 1.436 4.623" stroke="#FFE8FF" stroke-miterlimit="10" stroke-linecap="round" stroke-linejoin="round"/><path d="M6.525 5.862s.73 1.042 1.461-.114v-1.21l-.185-.668-.145-.111M8.116 5.862s.73 1.042 1.46-.114v-1.21l-.35-.856M11.042 5.748c-.789.76-1.335 0-1.335 0M4.399 4.717c.203.176.46.49.514.978a.512.512 0 0 0 .135.311c.24.239.788.61 1.336-.258v-1.21l-.255-.51M12.464 5.458c.774.229.91 1.378-.283 1.648l-2.544.578" stroke="#FFE8FF" stroke-miterlimit="10" stroke-linecap="round" stroke-linejoin="round"/></svg>
